findly-builder/apps/searchassist/src/assets/images/calendarIcon.svg

<?xml version="1.0" encoding="UTF-8"?>
<svg width="20px" height="20px" viewBox="0 0 20 20" version="1.1" xmlns="http://www.w3.org/2000/svg" xmlns:xlink="http://www.w3.org/1999/xlink">
    <!-- Generator: Sketch 53.2 (72643) - https://sketchapp.com -->
    <title>calendarIcon</title>
    <desc>Created with Sketch.</desc>
    <g id="Page-1" stroke="none" stroke-width="1" fill="none" fill-rule="evenodd">
        <g id="calendarIcon" fill="#26344A" fill-rule="nonzero">
            <path d="M4,13 C3.72385763,13 3.5,13.2238576 3.5,13.5 C3.5,13.7761424 3.72385763,14 4,14 L5,14 L5,15 C5,15.2761424 5.22385763,15.5 5.5,15.5 C5.77614237,15.5 6,15.2761424 6,15 L6,14 L8,14 L8,15 C8,15.2761424 8.22385763,15.5 8.5,15.5 C8.77614237,15.5 9,15.2761424 9,15 L9,14 L11,14 L11,15 C11,15.2761424 11.2238576,15.5 11.5,15.5 C11.7761424,15.5 12,15.2761424 12,15 L12,14 L14,14 L14,15 C14,15.2761424 14.2238576,15.5 14.5,15.5 C14.7761424,15.5 15,15.2761424 15,15 L15,14 L16,14 C16.2761424,14 16.5,13.7761424 16.5,13.5 C16.5,13.2238576 16.2761424,13 16,13 L15,13 L15,11 L16,11 C16.2761424,11 16.5,10.7761424 16.5,10.5 C16.5,10.2238576 16.2761424,10 16,10 L15,10 L15,9 C15,8.72385763 14.7761424,8.5 14.5,8.5 C14.2238576,8.5 14,8.72385763 14,9 L14,10 L12,10 L12,9 C12,8.72385763 11.7761424,8.5 11.5,8.5 C11.2238576,8.5 11,8.72385763 11,9 L11,10 L9,10 L9,9 C9,8.72385763 8.77614237,8.5 8.5,8.5 C8.22385763,8.5 8,8.72385763 8,9 L8,10 L6,10 L6,9 C6,8.72385763 5.77614237,8.5 5.5,8.5 C5.22385763,8.5 5,8.72385763 5,9 L5,10 L4,10 C3.72385763,10 3.5,10.2238576 3.5,10.5 C3.5,10.7761424 3.72385763,11 4,11 L5,11 L5,13 L4,13 Z M14,11 L14,13 L12,13 L12,11 L14,11 Z M11,11 L11,13 L9,13 L9,11 L11,11 Z M6,11 L8,11 L8,13 L6,13 L6,11 Z M17.5,1.5 L16,1.5 C16,0.671572875 15.3284271,3.83793439e-16 14.5,3.33066907e-16 C13.6715729,2.82340376e-16 13,0.671572875 13,1.5 L7,1.5 C7,0.671572875 6.32842712,5.07265313e-17 5.5,0 C4.67157288,-5.07265313e-17 4,0.671572875 4,1.5 L2.5,1.5 C1.11928813,1.5 1.69088438e-16,2.61928813 0,4 L0,16.75 C2.19814969e-16,18.5449254 1.45507456,20 3.25,20 L16.75,20 C18.5449254,20 20,18.5449254 20,16.75 L20,4 C20,2.61928813 18.8807119,1.5 17.5,1.5 Z M14,1.5 C14,1.22385763 14.2238576,1 14.5,1 C14.7761424,1 15,1.22385763 15,1.5 L15,2.5 C15,2.77614237 14.7761424,3 14.5,3 C14.2238576,3 14,2.77614237 14,2.5 L14,1.5 Z M5,1.5 C5,1.22385763 5.22385763,1 5.5,1 C5.77614237,1 6,1.22385763 6,1.5 L6,2.5 C6,2.77614237 5.77614237,3 5.5,3 C5.22385763,3 5,2.77614237 5,2.5 L5,1.5 Z M1,4 C0.999694935,3.50119722 1.24780791,3.03499674 1.66171875,2.75664062 C1.90912452,2.58904377 2.20117198,2.49963315 2.5,2.5 L4,2.5 C4,3.32842712 4.67157288,4 5.5,4 C6.32842712,4 7,3.32842712 7,2.5 L13,2.5 C13,3.32842712 13.6715729,4 14.5,4 C15.3284271,4 16,3.32842712 16,2.5 L17.5,2.5 C18.2688699,2.50070972 18.9129806,3.08209545 18.9921875,3.846875 C18.9973807,3.89775161 18.9999883,3.94885903 19,4 L19,6 L0.999999719,6 L1,4 Z M16.75,19 L3.25,19 C2.34505098,18.9985205 1.52918323,18.45466 1.1796875,17.6199219 C1.57532103,17.8681908 2.0329204,17.9999199 2.5,18 L17.5,18 C17.9670796,17.9999199 18.424679,17.8681908 18.8203125,17.6199219 C18.4708168,18.45466 17.654949,18.9985205 16.75,19 L16.75,19 Z M19,15.5 C18.9991388,16.3280701 18.3280701,16.9991388 17.5,17 L2.5,17 C1.67192987,16.9991388 1.00086123,16.3280701 1,15.5 L1,7 L19,7 L19,15.5 Z" id="Shape"></path>
        </g>
    </g>
</svg>

<svg width="20" height="20" xmlns="http://www.w3.org/2000/svg"><path d="M4 13a.5.5 0 1 0 0 1h1v1a.5.5 0 1 0 1 0v-1h2v1a.5.5 0 1 0 1 0v-1h2v1a.5.5 0 1 0 1 0v-1h2v1a.5.5 0 1 0 1 0v-1h1a.5.5 0 1 0 0-1h-1v-2h1a.5.5 0 1 0 0-1h-1V9a.5.5 0 1 0-1 0v1h-2V9a.5.5 0 1 0-1 0v1H9V9a.5.5 0 0 0-1 0v1H6V9a.5.5 0 0 0-1 0v1H4a.5.5 0 1 0 0 1h1v2H4Zm10-2v2h-2v-2h2Zm-3 0v2H9v-2h2Zm-5 0h2v2H6v-2Zm11.5-9.5H16a1.5 1.5 0 0 0-3 0H7a1.5 1.5 0 0 0-3 0H2.5A2.5 2.5 0 0 0 0 4v12.75A3.25 3.25 0 0 0 3.25 20h13.5A3.25 3.25 0 0 0 20 16.75V4a2.5 2.5 0 0 0-2.5-2.5Zm-3.5 0a.5.5 0 1 1 1 0v1a.5.5 0 1 1-1 0v-1Zm-9 0a.5.5 0 0 1 1 0v1a.5.5 0 0 1-1 0v-1ZM1 4a1.497 1.497 0 0 1 1.5-1.5H4a1.5 1.5 0 0 0 3 0h6a1.5 1.5 0 0 0 3 0h1.5A1.502 1.502 0 0 1 19 4v2H1V4Zm15.75 15H3.25a2.248 2.248 0 0 1-2.07-1.38c.395.248.853.38 1.32.38h15c.467 0 .925-.132 1.32-.38A2.248 2.248 0 0 1 16.75 19ZM19 15.5a1.5 1.5 0 0 1-1.5 1.5h-15A1.5 1.5 0 0 1 1 15.5V7h18v8.5Z" fill="#26344A"/></svg>
